usr/share/icons/biglinux-icons-material/32/actions/mail-mark-read.svg

<svg version="1.1" viewBox="0 0 32 32" xmlns="http://www.w3.org/2000/svg">
 <defs>
  <style id="current-color-scheme" type="text/css">.ColorScheme-Text {
        color:#dedede;
      }</style>
 </defs>
 <path class="ColorScheme-Text" d="m16 2.6309c-0.66297 1e-7 -1.327 0.18184-1.8301 0.54688l-2.5117 1.8223h-3.6582c-1.662 0-3 1.338-3 3v1.832l-2.9883 2.168h-0.011719v1 0.21289 8.8203 0.9668 0.2793l0.013672-0.011719c0.13738 2.0897 1.8607 3.7324 3.9863 3.7324h20c2.1257 0 3.8489-1.6427 3.9863-3.7324l0.013672 0.011719v-0.2793-0.9668-8.8203-0.21289-1h-0.013672l-2.9863-2.168v-1.832c0-1.662-1.338-3-3-3h-3.6602l-2.5117-1.8223c-0.50312-0.36503-1.1652-0.54688-1.8281-0.54688zm0 0.8457c0.35982 0 0.71965 0.10128 1 0.30469l1.6797 1.2188h-5.3594l1.6797-1.2188c0.28035-0.2034 0.64018-0.30469 1-0.30469zm-8 2.5234h16c1.108 0 2 0.892 2 2v4h-0.19922l-1.3145 1h-0.005859l-7.4688 5.7949c-0.56803 0.44064-1.4574 0.44255-2.0254 0.001953l-7.4727-5.7969-1.3145-1h-0.19922v-4c0-1.108 0.892-2 2-2zm-3 5.0371v0.96289h-1.3281l1.3281-0.96289zm22 0 1.3281 0.96289h-1.3281v-0.96289zm-24 1.9629h2 0.91016l3.8672 3-6.7773 5.2578v-8.2578zm23.09 0h0.91016 2v8.2578l-6.7773-5.2578 3.8672-3zm-15.51 3.623 3.6035 2.7949c0.99892 0.7749 2.6339 0.7749 3.6328 0l3.6035-2.7949 7.5801 5.8809v0.49609c0 1.662-1.338 3-3 3h-20c-1.662 0-3-1.338-3-3v-0.49609l7.5801-5.8809z" fill="currentColor"/>
</svg>

<svg xmlns="http://www.w3.org/2000/svg" viewBox="0 0 32 32"><path fill="currentColor" d="M16 2.63c-.663 0-1.327.183-1.83.548L11.658 5H8C6.338 5 5 6.338 5 8v1.832L2.012 12H2V23.28l.014-.012A3.987 3.987 0 0 0 6 27h20a3.987 3.987 0 0 0 3.986-3.732l.014.011V12h-.014L27 9.832V8c0-1.662-1.338-3-3-3h-3.66l-2.512-1.822c-.503-.365-1.165-.547-1.828-.547zm0 .847c.36 0 .72.1 1 .304l1.68 1.22h-5.36L15 3.78c.28-.203.64-.304 1-.304zM8 6h16c1.108 0 2 .892 2 2v4h-.2l-1.314 1h-.006l-7.468 5.795c-.568.44-1.458.442-2.026.002L7.514 13l-1.315-1h-.2V8c0-1.108.893-2 2-2zm-3 5.037V12H3.672L5 11.037zm22 0 1.328.963H27v-.963zM3 13h2.91l3.867 3L3 21.258V13zm23.09 0H29v8.258L22.223 16l3.867-3zm-15.51 3.623 3.603 2.795c1 .775 2.634.775 3.633 0l3.604-2.795 7.58 5.88V23c0 1.662-1.338 3-3 3H6c-1.662 0-3-1.338-3-3v-.496l7.58-5.881z" style="color:#dedede"/></svg>
